X:1
T:Rockford, 77.77.77 repeat
T:Rockford, 77.77.77 repeat
T:Scott Werdebaugh, 1983
T:© 1983 Scott Werdebaugh. Reproduce or publish freely for Christian worship or devotions. Courtesy of the Cyber Hymnal™
C:Scott Werdebaugh, 1983
Z:© 1983 Scott Werdebaugh. Reproduce or publish freely for Christian worship or devotions.
Z:Courtesy of the Cyber Hymnal™
%%score 1 2 ( 3 4 )
L:1/8
Q:1/4=113
M:4/4
K:C
V:1 treble 
V:2 treble 
V:3 bass 
V:4 bass 
V:1
"^Joyfully" CD | E2 E2 F2 F2 | E6 EF | G2 G2 A2 A2 | G6 EG | A2 A2 c2 (BA) | G6 GG | ^F2 F2 G2 A2 | %8
 G6 G=F | E2 E2 F2 F2 | E6 EF | G2 G2 A2 A2 | G6 EG | A2 A2 B2 B2 | c8- | c2 z4 |] %16
V:2
 CD | [CE]2 [CE]2 [CF]2 [CF]2 | [CE]6 [CE][DF] | [EG]2 [EG]2 [FA]2 [FA]2 | [EG]6 [CE][EG] | %5
 [FA]2 [FA]2 [Ac]2 ([GB][FA]) | [EG]6 [EG][EG] | [D^F]2 [DF]2 [DG]2 [DA]2 | [DG]6 [DG][D=F] | %9
 [CE]2 [CE]2 [CF]2 [CF]2 | [CE]6 [CE][DF] | [EG]2 [EG]2 [FA]2 [FA]2 | [EG]6 [CE][EG] | %13
 [FA]2 [DA]2 [GB]2 [FB]2 | [Ec]8- | [Ec]2 z4 |] %16
V:3
 [E,G,][G,B,] | [C,G,]2 [C,G,]2 [F,A,]2 [F,A,]2 | [C,G,]6 [C,G,][G,B,] | %3
 [C,C]2 [C,C]2 [A,C]2 [A,C]2 | [C,C]6 [C,G,][C,E,] | [C,F,]2 [C,F,]2 [F,A,]2 ([D,G,][G,,F,]) | %6
 [C,E,]6 [C,G,][C,C] | [D,A,]2 [D,A,]2 [G,B,]2 [^F,C]2 | [G,B,]6 [G,B,][G,B,] | %9
 [C,G,]2 [C,G,]2 [=F,A,]2 [F,A,]2 | [C,G,]6 [C,G,][G,B,] | [C,C]2 [C,C]2 [A,C]2 [A,C]2 | %12
 [C,C]6 [C,G,][C,E,] | [C,F,]2 [F,,F,]2 [D,G,]2 [G,,G,]2 | [C,G,]8- | [C,G,]2 z4 |] %16
V:4
 x2 | x4 F,,G,, A,,B,, | x8 | x4 F,,G,, A,,B,, | x8 | x8 | x8 | x8 | x8 | x4 F,,G,, A,,B,, | x8 | %11
 x4 F,,G,, A,,B,, | x8 | x8 | x8 | x6 |] %16

